X:150
T: HOERT DIE LERCHE SIE SINGT
N: F0281
O: Europa, Mitteleuropa, Deutschland
R: Jugend - Lied, Natur
M: 6/8
L: 1/16
K: D
 | F4F2G3FG2 | A6d4z2 |
f3ed2d3cB2 | A6F4z2 |
f3ed2d3cB2 | A6F4z2 |
E3F^G2A3BG2 | A6G6 |
F3EF2G3FG2 | A4d2f6 |
d2A2F2A2G2E2 | D6-D4z2

@@@ Tune index: 5581
